public/svg/alert-orange.svg

<svg width="22" height="19" viewBox="0 0 22 19" fill="none" xmlns="http://www.w3.org/2000/svg">
<path d="M10.6888 2.96875C10.3167 2.96875 9.97637 3.24187 10.0013 3.5625L10.345 11.5781C10.345 11.6569 10.3813 11.7324 10.4457 11.788C10.5102 11.8437 10.5976 11.875 10.6888 11.875C10.78 11.875 10.8674 11.8437 10.9319 11.788C10.9963 11.7324 11.0325 11.6569 11.0325 11.5781L11.3763 3.5625C11.4012 3.24187 11.0609 2.96875 10.6888 2.96875Z" stroke="#C38751" stroke-linecap="round" stroke-linejoin="round"/>
<path d="M10.6875 16.0312C11.0672 16.0312 11.375 15.7654 11.375 15.4375C11.375 15.1096 11.0672 14.8438 10.6875 14.8438C10.3078 14.8438 10 15.1096 10 15.4375C10 15.7654 10.3078 16.0312 10.6875 16.0312Z" stroke="#C38751" stroke-linecap="round" stroke-linejoin="round"/>
</svg>

<svg xmlns="http://www.w3.org/2000/svg" width="22" height="19" fill="none"><path stroke="#C38751" stroke-linecap="round" stroke-linejoin="round" d="M10.689 2.969c-.372 0-.713.273-.688.594l.344 8.015c0 .079.036.154.1.21a.37.37 0 0 0 .244.087.37.37 0 0 0 .243-.087.28.28 0 0 0 .1-.21l.344-8.015c.025-.321-.315-.594-.687-.594M10.688 16.031c.38 0 .687-.266.687-.593 0-.328-.308-.594-.687-.594s-.688.266-.688.594.308.593.688.593"/></svg>
